X:1
T:Valses poéticos
T:Quasi ad libitum (sentimental)
T:Valses poéticos
T:No. 6
T:Enrique Granados
T:OpenScore (CC0)
T:OpenScore (CC0)
C:Enrique Granados
Z:OpenScore (CC0)
%%score { ( 1 4 ) | ( 2 3 ) }
L:1/8
Q:1/4=135
M:3/4
K:A
V:1 treble nm="Piano" snm="Pno."
V:4 treble 
V:2 bass 
V:3 bass 
V:1
!p!"^Quasi ad libitum (sentimental)" (C2 A2 A2 | A2{GA} G2 F2) | (B,2 A2 A2 | A2{GA} G2 F2) | E6 | %5
 F6 | x4"_rall." (G2 |"^ten."!pp! !tenuto!c6) |"_cresc." (C2 A2 A2 | A2{GA} [CG]2 [A,F]2) | %10
 ([B,D]2 [Bd]2 [Bd]2 | [Bd]2 [EFc]2 [DB]2 | [EAe]6) |"_dim." B4-"_rall." BA/B/ | c6 | z6 | %16
 (c2 a2 a2 | a2{ga} g2 f2) | (B2 [da]2 a2 | a2{ga} g2 f2) | e6 | f6 | c6 |!pp! c'6 | %24
 ([A,C]2 [FA]2 [FA]2 |"_cresc." [FA]2{GA} [CG]2 [A,F]2) | ([B,D]2 [Bd]2"_con" B2 | %27
"_passione" [dg]2 [ce]2 [Bd]2 | [Ac]2 C4) |"_dim." [Ac]2 G2 C2 |"^ten."{FG} !tenuto!^A6 | z6 | %32
"_con molta espressione" (f6 | ^e6 |!>(! =e4 A2 | d6) | (c2 G2 B2!>)! |!p! (3ABA G2 F2) | c6 | %39
 c4 z2 | f6 |!>(! (^e6 | =e4 A2 | d6)!>)! |!p! (C2 [A,A]2"_rall molto" A2 | A2{GA} G3 F) | %46
 [A,F]6- | [A,F]2 !fermata!z4 |] %48
V:2
 A,6- | A,6 | D,,2 [B,,F,]4 | B,,,2 E,,2 D,,2 | B,2 A,4 |{/C} B,2 [F,A,]4 | G,,2 [C,^E,B,]2 z2 | %7
[I:staff -1] C6 |[I:staff +1] z2 C,4 | (F,,6 | B,,3)!<(! (^E, F,=G, | ^G,=A, ^A,2 B,2)!<)! | %12
 (C2 A,2 E,2) | E,,2 G,2 E,2 | (A,,2 E,2!pp!"_poco rall." A,2) | ^E,6 | F,2 C4 | F,2 C4 | D,2 B,4 | %19
 B,,2 E,2 D,2 | C,2 [CE]4 | D,2 [B,D]4 | G,2 C2[I:staff -1] g2 | c6 |[I:staff +1] [F,,F,-]6 | %25
 F,6- | F,6 | F,6- | F,2 z2 z2 | (C,,2 ^E,2 B,2 | [F,^A,]2 C,2 F,,2 | C,6) | (F,,C,F,^A,F,C,) | %33
 (F,,C,F,^A,F,C,) | (F,,C,F,=A,F,C,) | (F,,D,F,A,F,F,,) | ^E,,2 C,2 G,2 | F,,2 C,2 A,2 | %38
 C,,2 z2 G,,2 | C,6 | (F,,C,F,^A,F,C,) | (F,,C,F,^A,F,C,) | (F,,D,F,A,F,D,) | (F,,D,F,A,B,^B,) | %44
 C,6 | [C,B,]6 | F,,6- | F,,2 !fermata!z4 |] %48
V:3
 F,,2 C,4 | F,,2 C,4 | x6 | x6 | C,,2 [C,E,]4 | D,,2 [B,,D,]4 | x6 | x6 | F,,6 | x6 | x6 | x6 | %12
 x6 | x6 | x6 | x6 | x6 | x6 | x6 | x6 | x6 | x6 | x6 | x6 | x6 | x6 | G,2 (B,,2 A,,2 | %27
 G,,2 A,,2 B,,2 | C,2) x2 x2 | x6 | x6 | x6 | x6 | x6 | x6 | x6 | x6 | x6 | x6 | x6 | x6 | x6 | %42
 x6 | x6 | x6 | x6 | x6 | x6 |] %48
V:4
 x6 | x6 | x6 | D2 B,4 | x6 | x6 | C6- | x6 | x6 | x6 | x6 | x6 | x6 | (D6 | C6) | x6 | A6- | A6 | %18
 x2 F4 | d2 B4 | B2 A4 |{/c} B2 [FA]4 | x2 [^EB]2"^iz." z2 | x6 | x6 | x6 | x6 | x6 | x6 | x6 | %30
 x6 | x6 | x6 | x6 | x6 | x6 | x6 | x6 | z2"_rall." [C^E]4 | [CE]4 x2 | x6 | x6 | x6 | x6 | C6 | %45
 [C^E]4 x2 | x6 | x6 |] %48

